X: 42056
T: Waltz In The House
R: waltz
M: 3/4
K: Aminor
|:d2|e2 a2 a2|a2 b2 a2|g2 e2 g2|G4 AB|c2 B2 c2|d2 c2 d2|e4 ee|e4 d2|
e2 a2 a2|a2 b2 a2|g2 e2 g2|G4 AB|c2 B2 c2|B2 A2 G2|A6|A4:|
|:G2|E2 A2 A2|A2 d2 c2|B2 A2 B2|G3 A BG|A3 A AA|A2 B2 d2|e3 e ee|e4 d2|
e2 a2 a2|a2 b2 a2|g2 e2 g2|G4 AB|c2 B2 c2|B2 A2 G2|A6|A4:|

